Origami/16x16/apps/preferences-ubuntu-panel.svg

<svg width="16" height="16" version="1.1" viewBox="0 0 16 16" xmlns="http://www.w3.org/2000/svg">
 <path d="m0.80078125 0.99804688v0.00195312c-0.4432 0-0.80078125 0.3464438-0.80078125 0.7773438v11.222656 1.222656c1.4802974e-16 0.43092 0.35758125 0.777344 0.80078125 0.777344h14.398438c0.443 0 0.800781-0.346344 0.800781-0.777344v-1.222656-11.224609c0-0.4309-0.357781-0.77734373-0.800781-0.77734372h-14.398438z" style="fill:#8b346f"/>
 <path d="m0.80078125 0.99804688v0.00195312c-0.4432 0-0.80078125 0.3464438-0.80078125 0.7773438v11.222656 1.222656c1.4802974e-16 0.43092 0.35758125 0.777344 0.80078125 0.777344h2.1992188v-14.001953h-2.1992188z" style="opacity:.2"/>
 <rect x="1" y="2" width="1" height="1" rx=".125" ry=".125" fill="#fff"/>
 <rect x="1" y="4" width="1" height="1" rx=".125" ry=".125" fill="#fff"/>
 <rect x="1" y="6" width="1" height="1" rx=".125" ry=".125" fill="#fff"/>
 <rect x="1" y="8" width="1" height="1" rx=".125" ry=".125" fill="#fff"/>
</svg>

<svg xmlns="http://www.w3.org/2000/svg" width="16" height="16" version="1.1" viewBox="0 0 16 16">
 <path style="fill:#8b346f" d="M 0.80078125 0.99804688 L 0.80078125 1 C 0.35758125 1 0 1.3464438 0 1.7773438 L 0 13 L 0 14.222656 C 1.4802974e-16 14.653576 0.35758125 15 0.80078125 15 L 15.199219 15 C 15.642219 15 16 14.653656 16 14.222656 L 16 13 L 16 1.7753906 C 16 1.3444906 15.642219 0.99804687 15.199219 0.99804688 L 0.80078125 0.99804688 z"/>
 <path style="opacity:0.2" d="M 0.80078125 0.99804688 L 0.80078125 1 C 0.35758125 1 0 1.3464438 0 1.7773438 L 0 13 L 0 14.222656 C 1.4802974e-16 14.653576 0.35758125 15 0.80078125 15 L 3 15 L 3 0.99804688 L 0.80078125 0.99804688 z"/>
 <rect fill="#fff" width="1" height="1" x="1" y="2" rx=".125" ry=".125"/>
 <rect fill="#fff" width="1" height="1" x="1" y="4" rx=".125" ry=".125"/>
 <rect fill="#fff" width="1" height="1" x="1" y="6" rx=".125" ry=".125"/>
 <rect fill="#fff" width="1" height="1" x="1" y="8" rx=".125" ry=".125"/>
</svg>
